X: 1156
T: A Bunch of Haws.
C:Early.
B:O'Neill's Music of Ireland
N:O'Neill's - 1156
Z:Transcribed by Stephen Foy (shf@access.digex.net)
Z:abc 1.6
M:9/8
R:slipjig
K:G
dBG GBG AGE | dBG GBd efg | dBG {A}G2 B AGE | gbg (f/g/a).f e2 g :|
def gfg edB | def gfg a2 (B/c/) | def gfg edB | (g/a/b).g faf edB |
def gfg edB | def gfg a2 (g/a/) | bag agf gfe | dBG GBd efg ||


